icons/evolvere-blue-folders-flat-vivid-dark-fallback/apps/64/p10-plug.svg

<svg xmlns="http://www.w3.org/2000/svg" viewBox="0 0 64 64" xmlns:xlink="http://www.w3.org/1999/xlink"><g color="#000"><path d="m0 4v30 28l2 2h30 30l2-2v-28-30h-32-32" fill="#6397a7"/><path d="m2 0l-2 1v3h19.563 19.563 24.875v-3l-2-1h-22.875-19.563-17.563" fill="#73b3c8"/><g fill="#00475e" fill-opacity=".055"><path d="m0 5v1h64v-1h-64m0 2v1h64v-1h-64m0 2v1h64v-1h-64m0 2v1h64v-1h-64m0 2v1h64v-1h-64m0 2v1h64v-1h-64m0 2v1h64v-1h-64m0 2v1h64v-1h-64m0 2v1h64v-1h-64m0 2v1h64v-1h-64m0 2v1h64v-1h-64m0 2v1h64v-1h-64m0 2v1h64v-1h-64m0 2v1h64v-1h-64m0 2v1h64v-1h-64m0 2v1h64v-1h-64m0 2v1h64v-1h-64m0 2v1h64v-1h-64m0 2v1h64v-1h-64m0 2v1h64v-1h-64m0 2v1h64v-1h-64m0 2v1h64v-1h-64m0 2v1h64v-1h-64m0 2v1h64v-1h-64m0 2v1h64v-1h-64m0 2v1h64v-1h-64m0 2v1h64v-1h-64m0 2v1h64v-1h-64m0 2v1h64v-1h-64m1 2l1 1h60l1-1h-62"/><path d="m1 4v59l1 1v-60h-1m2 0v60h1v-60h-1m2 0v60h1v-60h-1m2 0v60h1v-60h-1m2 0v60h1v-60h-1m2 0v60h1v-60h-1m2 0v60h1v-60h-1m2 0v60h1v-60h-1m2 0v60h1v-60h-1m2 0v60h1v-60h-1m2 0v60h1v-60h-1m2 0v60h1v-60h-1m2 0v60h1v-60h-1m2 0v60h1v-60h-1m2 0v60h1v-60h-1m2 0v60h1v-60h-1m2 0v60h1v-60h-1m2 0v60h1v-60h-1m2 0v60h1v-60h-1m2 0v60h1v-60h-1m2 0v60h1v-60h-1m2 0v60h1v-60h-1m2 0v60h1v-60h-1m2 0v60h1v-60h-1m2 0v60h1v-60h-1m2 0v60h1v-60h-1m2 0v60h1v-60h-1m2 0v60h1v-60h-1m2 0v60h1v-60h-1m2 0v60h1v-60h-1m2 0v60h1v-60h-1m2 0v59l1-1v-28-30h-1"/></g></g><g transform="matrix(0 1 1 0-3 1)"><path d="m27 14l-2 2v1h1v3l-1 1v1 4 1 9l-2 1v25l2 1h2 4l2-1v-25l-2-1v-9-1-5l-1-1v-3h1v-1l-2-2h-2m16 0l-2 1v25l2 1v9 1 4 1l1 1v3h-1v1l2 2h2l2-2v-1h-1v-3l1-1v-1-4-1-9l2-1v-25l-2-1h-4-2" fill="#00475e" fill-opacity=".15" color="#000"/><g transform="translate(50)"><path d="m-23 17l-1-1h-4l-1 1z" fill="#e3dd7d" color="#000" id="0"/><path transform="scale(1-1)" d="m-29-33h6v16h-6z" fill="#e3dd7d" color="#000" id="1"/><path transform="scale(1-1)" fill="#2c454d" color="#000" d="m-29-18h6v1h-6z" id="2"/><path transform="scale(1-1)" fill="#2c454d" color="#000" d="m-29-23h6v1h-6z" id="3"/><path fill="#e3dd7d" color="#000" d="m-28 13h4v3h-4z" id="4"/><path d="m-29 13h6v-1l-2-2h-2l-2 2z" fill="#e3dd7d" color="#000" id="5"/><path transform="scale(1-1)" d="m-29-13h6v1h-6z" fill="#e3dd7d" color="#000" id="6"/><path d="m30 20l-1 2v2 2 2l1 2h25l1-2v-2-2-2l-1-2h-25" transform="matrix(0 1 1 0-51 3)" fill="#2c454d" color="#000"/></g><g transform="matrix(1 0 0-1 68 69)"><use xlink:href="#0"/><use xlink:href="#1"/><use xlink:href="#2"/><use xlink:href="#3"/><use xlink:href="#4"/><use xlink:href="#5"/><use xlink:href="#6"/><path d="m8 38l-1 2v2 2 2l1 2h25l1-2v-4-2l-1-2h-25" transform="matrix(0-1 1 0-69 66)" fill="#2c454d" color="#000"/></g></g><g fill="#fff" fill-opacity=".158" color="#000"><path d="m0 1v1h64v-1h-64m0 2v1h64v-1h-64"/><path d="m2 0l-1 .5v3.5h1v-4m1 0v4h1v-4h-1m2 0v4h1v-4h-1m2 0v4h1v-4h-1m2 0v4h1v-4h-1m2 0v4h1v-4h-1m2 0v4h1v-4h-1m2 0v4h1v-4h-1m2 0v4h1v-4h-1m2 0v4h.563.438v-4h-.438-.563m2 0v4h1v-4h-1m2 0v4h1v-4h-1m2 0v4h1v-4h-1m2 0v4h1v-4h-1m2 0v4h1v-4h-1m2 0v4h1v-4h-1m2 0v4h1v-4h-1m2 0v4h1v-4h-1m2 0v4h1v-4h-1m2 0v4h.125.875v-4h-.875-.125m2 0v4h1v-4h-1m2 0v4h1v-4h-1m2 0v4h1v-4h-1m2 0v4h1v-4h-1m2 0v4h1v-4h-1m2 0v4h1v-4h-1m2 0v4h1v-4h-1m2 0v4h1v-4h-1m2 0v4h1v-4h-1m2 0v4h1v-4h-1m2 0v4h1v-4h-1m2 .5v3.5h1v-3l-1-.5"/></g><path d="m64 6l-2-2 2-1z" fill="#71a6b8"/><path d="m0 3v3l2-2" fill="#9dcad9"/></svg>

<?xml version="1.0" encoding="UTF-8" standalone="no"?>
<!-- Created with Inkscape (http://www.inkscape.org/) -->

<svg
   xmlns:dc="http://purl.org/dc/elements/1.1/"
   xmlns:cc="http://creativecommons.org/ns#"
   xmlns:rdf="http://www.w3.org/1999/02/22-rdf-syntax-ns#"
   xmlns:svg="http://www.w3.org/2000/svg"
   xmlns="http://www.w3.org/2000/svg"
   xmlns:sodipodi="http://sodipodi.sourceforge.net/DTD/sodipodi-0.dtd"
   xmlns:inkscape="http://www.inkscape.org/namespaces/inkscape"
   width="64"
   height="64"
   id="svg13094"
   version="1.1"
   inkscape:version="0.91+devel r"
   sodipodi:docname="p10-plug.svg">
  <sodipodi:namedview
     id="base"
     pagecolor="#ffffff"
     bordercolor="#666666"
     borderopacity="1.0"
     inkscape:pageopacity="0"
     inkscape:pageshadow="2"
     inkscape:zoom="8.0000004"
     inkscape:cx="54.521295"
     inkscape:cy="32.117019"
     inkscape:document-units="px"
     inkscape:current-layer="svg13094"
     showgrid="false"
     inkscape:snap-bbox="true"
     inkscape:bbox-paths="true"
     inkscape:bbox-nodes="true"
     inkscape:snap-bbox-edge-midpoints="true"
     inkscape:snap-bbox-midpoints="true"
     inkscape:object-paths="true"
     inkscape:snap-intersection-paths="true"
     inkscape:object-nodes="true"
     inkscape:snap-smooth-nodes="true"
     inkscape:snap-midpoints="true"
     inkscape:snap-object-midpoints="true"
     inkscape:snap-center="true"
     showguides="false"
     inkscape:guide-bbox="true"
     inkscape:window-width="1920"
     inkscape:window-height="1023"
     inkscape:window-x="-10"
     inkscape:window-y="35"
     inkscape:window-maximized="1"
     inkscape:snap-global="true"
     fit-margin-top="0"
     fit-margin-left="0"
     fit-margin-right="0"
     fit-margin-bottom="0"
     showborder="true"
     inkscape:showpageshadow="false"
     inkscape:snap-page="true">
    <inkscape:grid
       type="xygrid"
       id="grid3075"
       empspacing="5"
       visible="true"
       enabled="true"
       snapvisiblegridlinesonly="true"
       originx="1.6362304e-08px"
       originy="18px" />
    <sodipodi:guide
       orientation="0,1"
       position="-11,30"
       id="guide9148" />
    <sodipodi:guide
       orientation="1,0"
       position="32,70"
       id="guide9150" />
  </sodipodi:namedview>
  <defs
     id="defs13096" />
  <metadata
     id="metadata13099">
    <rdf:RDF>
      <cc:Work
         rdf:about="">
        <dc:format>image/svg+xml</dc:format>
        <dc:type
           rdf:resource="http://purl.org/dc/dcmitype/StillImage" />
        <dc:title></dc:title>
      </cc:Work>
    </rdf:RDF>
  </metadata>
  <path
     id="path6538"
     d="m 0,4 0,30 0,28 2,2 30,0 30,0 2,-2 L 64,34 64,4 32,4 0,4 z"
     style="color:#000000;fill:#6397a7;fill-opacity:1;fill-rule:nonzero;stroke:none;stroke-width:2.28571415;marker:none;visibility:visible;display:inline;overflow:visible;enable-background:accumulate"
     inkscape:connector-curvature="0" />
  <path
     style="color:#000000;fill:#73b3c8;fill-opacity:1;fill-rule:nonzero;stroke:none;marker:none;visibility:visible;display:inline;overflow:visible;enable-background:accumulate"
     d="M 2 0 L 0 1 L 0 4 L 19.5625 4 L 39.125 4 L 64 4 L 64 1 L 62 0 L 39.125 0 L 19.5625 0 L 2 0 z "
     id="path6688" />
  <g
     id="g3043"
     inkscape:export-filename="folder.png"
     inkscape:export-xdpi="90"
     inkscape:export-ydpi="90"
     transform="translate(-0.62500009,0.082283)" />
  <g
     id="scalable"
     transform="matrix(1.0385892,0,0,1.0385892,1214.7222,1878.8121)"
     inkscape:label="#g3701"
     style="fill:#ffffff" />
  <path
     id="path4603"
     d="M 0,5 0,6 64,6 64,5 0,5 z M 0,7 0,8 64,8 64,7 0,7 z m 0,2 0,1 64,0 0,-1 -64,0 z m 0,2 0,1 64,0 0,-1 -64,0 z m 0,2 0,1 64,0 0,-1 -64,0 z m 0,2 0,1 64,0 0,-1 -64,0 z m 0,2 0,1 64,0 0,-1 -64,0 z m 0,2 0,1 64,0 0,-1 -64,0 z m 0,2 0,1 64,0 0,-1 -64,0 z m 0,2 0,1 64,0 0,-1 -64,0 z m 0,2 0,1 64,0 0,-1 -64,0 z m 0,2 0,1 64,0 0,-1 -64,0 z m 0,2 0,1 64,0 0,-1 -64,0 z m 0,2 0,1 64,0 0,-1 -64,0 z m 0,2 0,1 64,0 0,-1 -64,0 z m 0,2 0,1 64,0 0,-1 -64,0 z m 0,2 0,1 64,0 0,-1 -64,0 z m 0,2 0,1 64,0 0,-1 -64,0 z m 0,2 0,1 64,0 0,-1 -64,0 z m 0,2 0,1 64,0 0,-1 -64,0 z m 0,2 0,1 64,0 0,-1 -64,0 z m 0,2 0,1 64,0 0,-1 -64,0 z m 0,2 0,1 64,0 0,-1 -64,0 z m 0,2 0,1 64,0 0,-1 -64,0 z m 0,2 0,1 64,0 0,-1 -64,0 z m 0,2 0,1 64,0 0,-1 -64,0 z m 0,2 0,1 64,0 0,-1 -64,0 z m 0,2 0,1 64,0 0,-1 -64,0 z m 0,2 0,1 64,0 0,-1 -64,0 z m 1,2 1,1 60,0 1,-1 -62,0 z"
     style="font-size:medium;font-style:normal;font-variant:normal;font-weight:normal;font-stretch:normal;text-indent:0;text-align:start;text-decoration:none;line-height:normal;letter-spacing:normal;word-spacing:normal;text-transform:none;direction:ltr;block-progression:tb;writing-mode:lr-tb;text-anchor:start;baseline-shift:baseline;color:#000000;fill:#00475e;fill-opacity:0.05545617;stroke:none;stroke-width:1;marker:none;visibility:visible;display:inline;overflow:visible;enable-background:accumulate;font-family:Sans;-inkscape-font-specification:Sans;opacity:1;stroke-linecap:butt;stroke-linejoin:miter;stroke-miterlimit:4;stroke-dasharray:none;stroke-dashoffset:0;stroke-opacity:1"
     inkscape:connector-curvature="0" />
  <path
     id="path4605"
     d="M 1,4 1,63 2,64 2,4 1,4 z M 3,4 3,64 4,64 4,4 3,4 z M 5,4 5,64 6,64 6,4 5,4 z M 7,4 7,64 8,64 8,4 7,4 z m 2,0 0,60 1,0 0,-60 -1,0 z m 2,0 0,60 1,0 0,-60 -1,0 z m 2,0 0,60 1,0 0,-60 -1,0 z m 2,0 0,60 1,0 0,-60 -1,0 z m 2,0 0,60 1,0 0,-60 -1,0 z m 2,0 0,60 1,0 0,-60 -1,0 z m 2,0 0,60 1,0 0,-60 -1,0 z m 2,0 0,60 1,0 0,-60 -1,0 z m 2,0 0,60 1,0 0,-60 -1,0 z m 2,0 0,60 1,0 0,-60 -1,0 z m 2,0 0,60 1,0 0,-60 -1,0 z m 2,0 0,60 1,0 0,-60 -1,0 z m 2,0 0,60 1,0 0,-60 -1,0 z m 2,0 0,60 1,0 0,-60 -1,0 z m 2,0 0,60 1,0 0,-60 -1,0 z m 2,0 0,60 1,0 0,-60 -1,0 z m 2,0 0,60 1,0 0,-60 -1,0 z m 2,0 0,60 1,0 0,-60 -1,0 z m 2,0 0,60 1,0 0,-60 -1,0 z m 2,0 0,60 1,0 0,-60 -1,0 z m 2,0 0,60 1,0 0,-60 -1,0 z m 2,0 0,60 1,0 0,-60 -1,0 z m 2,0 0,60 1,0 0,-60 -1,0 z m 2,0 0,60 1,0 0,-60 -1,0 z m 2,0 0,60 1,0 0,-60 -1,0 z m 2,0 0,60 1,0 0,-60 -1,0 z m 2,0 0,60 1,0 0,-60 -1,0 z m 2,0 0,59 1,-1 0,-28 0,-30 -1,0 z"
     style="font-size:medium;font-style:normal;font-variant:normal;font-weight:normal;font-stretch:normal;text-indent:0;text-align:start;text-decoration:none;line-height:normal;letter-spacing:normal;word-spacing:normal;text-transform:none;direction:ltr;block-progression:tb;writing-mode:lr-tb;text-anchor:start;baseline-shift:baseline;color:#000000;fill:#00475e;fill-opacity:0.05545617;stroke:none;stroke-width:1;marker:none;visibility:visible;display:inline;overflow:visible;enable-background:accumulate;font-family:Sans;-inkscape-font-specification:Sans;opacity:1;stroke-linecap:butt;stroke-linejoin:miter;stroke-miterlimit:4;stroke-dasharray:none;stroke-dashoffset:0;stroke-opacity:1"
     inkscape:connector-curvature="0" />
  <g
     id="g4467"
     transform="matrix(0,1,1,0,-3,1)">
    <g
       id="g4459">
      <path
         inkscape:connector-curvature="0"
         id="path4457"
         d="m 27,14 -2,2 0,1 1,0 0,3 -1,1 0,1 0,4 0,1 0,9 -2,1 0,25 2,1 2,0 4,0 2,-1 0,-25 -2,-1 0,-9 0,-1 0,-5 -1,-1 0,-3 1,0 0,-1 -2,-2 -2,0 z m 16,0 -2,1 0,25 2,1 0,9 0,1 0,4 0,1 1,1 0,3 -1,0 0,1 2,2 2,0 2,-2 0,-1 -1,0 0,-3 1,-1 0,-1 0,-4 0,-1 0,-9 2,-1 0,-25 -2,-1 -4,0 -2,0 z"
         style="color:#000000;fill:#00475e;fill-opacity:0.15026832;fill-rule:nonzero;stroke:none;stroke-width:1;marker:none;visibility:visible;display:inline;overflow:visible;enable-background:accumulate" />
    </g>
    <g
       transform="translate(50,0)"
       id="g4269">
      <path
         sodipodi:nodetypes="ccccc"
         inkscape:connector-curvature="0"
         id="path4277"
         d="m -23,17 -1,-1 -4,0 -1,1 z"
         style="color:#000000;fill:#e3dd7d;fill-opacity:1;fill-rule:nonzero;stroke:none;stroke-width:1;marker:none;visibility:visible;display:inline;overflow:visible;enable-background:accumulate" />
      <path
         transform="scale(1,-1)"
         style="color:#000000;fill:#e3dd7d;fill-opacity:1;fill-rule:nonzero;stroke:none;stroke-width:1;marker:none;visibility:visible;display:inline;overflow:visible;enable-background:accumulate"
         d="m -29,-33 6,0 0,16 -6,0 z"
         id="path4279"
         inkscape:connector-curvature="0"
         sodipodi:nodetypes="ccccc" />
      <rect
         transform="scale(1,-1)"
         ry="0"
         rx="0"
         y="-18"
         x="-29"
         height="1"
         width="6"
         id="rect4281"
         style="color:#000000;fill:#2c454d;fill-opacity:1;fill-rule:nonzero;stroke:none;stroke-width:1;marker:none;visibility:visible;display:inline;overflow:visible;enable-background:accumulate" />
      <rect
         style="color:#000000;fill:#2c454d;fill-opacity:1;fill-rule:nonzero;stroke:none;stroke-width:1;marker:none;visibility:visible;display:inline;overflow:visible;enable-background:accumulate"
         id="rect4283"
         width="6"
         height="1"
         x="-29"
         y="-23"
         rx="0"
         ry="0"
         transform="scale(1,-1)" />
      <rect
         ry="0"
         rx="0"
         y="13"
         x="-28"
         height="3"
         width="4"
         id="rect4285"
         style="color:#000000;fill:#e3dd7d;fill-opacity:1;fill-rule:nonzero;stroke:none;stroke-width:1;marker:none;visibility:visible;display:inline;overflow:visible;enable-background:accumulate" />
      <path
         sodipodi:nodetypes="ccccccc"
         inkscape:connector-curvature="0"
         id="path4287"
         d="m -29,13 6,0 0,-1 -2,-2 -2,0 -2,2 z"
         style="color:#000000;fill:#e3dd7d;fill-opacity:1;fill-rule:nonzero;stroke:none;stroke-width:1;marker:none;visibility:visible;display:inline;overflow:visible;enable-background:accumulate" />
      <path
         transform="scale(1,-1)"
         style="color:#000000;fill:#e3dd7d;fill-opacity:1;fill-rule:nonzero;stroke:none;stroke-width:1;marker:none;visibility:visible;display:inline;overflow:visible;enable-background:accumulate"
         d="m -29,-13 6,0 0,1 -6,0 z"
         id="path4289"
         inkscape:connector-curvature="0"
         sodipodi:nodetypes="ccccc" />
      <path
         style="color:#000000;fill:#2c454d;fill-opacity:1;fill-rule:nonzero;stroke:none;stroke-width:1;marker:none;visibility:visible;display:inline;overflow:visible;enable-background:accumulate"
         d="M 30 20 L 29 22 L 29 24 L 29 26 L 29 28 L 30 30 L 55 30 L 56 28 L 56 26 L 56 24 L 56 22 L 55 20 L 30 20 z "
         transform="matrix(0,1,1,0,-51,3)"
         id="rect4271" />
    </g>
    <g
       id="g4323"
       transform="matrix(1,0,0,-1,68,69)">
      <path
         style="color:#000000;fill:#e3dd7d;fill-opacity:1;fill-rule:nonzero;stroke:none;stroke-width:1;marker:none;visibility:visible;display:inline;overflow:visible;enable-background:accumulate"
         d="m -23,17 -1,-1 -4,0 -1,1 z"
         id="path4331"
         inkscape:connector-curvature="0"
         sodipodi:nodetypes="ccccc" />
      <path
         sodipodi:nodetypes="ccccc"
         inkscape:connector-curvature="0"
         id="path4333"
         d="m -29,-33 6,0 0,16 -6,0 z"
         style="color:#000000;fill:#e3dd7d;fill-opacity:1;fill-rule:nonzero;stroke:none;stroke-width:1;marker:none;visibility:visible;display:inline;overflow:visible;enable-background:accumulate"
         transform="scale(1,-1)" />
      <rect
         style="color:#000000;fill:#2c454d;fill-opacity:1;fill-rule:nonzero;stroke:none;stroke-width:1;marker:none;visibility:visible;display:inline;overflow:visible;enable-background:accumulate"
         id="rect4335"
         width="6"
         height="1"
         x="-29"
         y="-18"
         rx="0"
         ry="0"
         transform="scale(1,-1)" />
      <rect
         transform="scale(1,-1)"
         ry="0"
         rx="0"
         y="-23"
         x="-29"
         height="1"
         width="6"
         id="rect4337"
         style="color:#000000;fill:#2c454d;fill-opacity:1;fill-rule:nonzero;stroke:none;stroke-width:1;marker:none;visibility:visible;display:inline;overflow:visible;enable-background:accumulate" />
      <rect
         style="color:#000000;fill:#e3dd7d;fill-opacity:1;fill-rule:nonzero;stroke:none;stroke-width:1;marker:none;visibility:visible;display:inline;overflow:visible;enable-background:accumulate"
         id="rect4339"
         width="4"
         height="3"
         x="-28"
         y="13"
         rx="0"
         ry="0" />
      <path
         style="color:#000000;fill:#e3dd7d;fill-opacity:1;fill-rule:nonzero;stroke:none;stroke-width:1;marker:none;visibility:visible;display:inline;overflow:visible;enable-background:accumulate"
         d="m -29,13 6,0 0,-1 -2,-2 -2,0 -2,2 z"
         id="path4341"
         inkscape:connector-curvature="0"
         sodipodi:nodetypes="ccccccc" />
      <path
         sodipodi:nodetypes="ccccc"
         inkscape:connector-curvature="0"
         id="path4343"
         d="m -29,-13 6,0 0,1 -6,0 z"
         style="color:#000000;fill:#e3dd7d;fill-opacity:1;fill-rule:nonzero;stroke:none;stroke-width:1;marker:none;visibility:visible;display:inline;overflow:visible;enable-background:accumulate"
         transform="scale(1,-1)" />
      <path
         style="color:#000000;fill:#2c454d;fill-opacity:1;fill-rule:nonzero;stroke:none;stroke-width:1;marker:none;visibility:visible;display:inline;overflow:visible;enable-background:accumulate"
         d="M 8 38 L 7 40 L 7 42 L 7 44 L 7 46 L 8 48 L 33 48 L 34 46 L 34 42 L 34 40 L 33 38 L 8 38 z "
         transform="rotate(-90,-1.5,67.5)"
         id="rect4325" />
    </g>
  </g>
  <path
     style="font-size:medium;font-style:normal;font-variant:normal;font-weight:normal;font-stretch:normal;text-indent:0;text-align:start;text-decoration:none;line-height:normal;letter-spacing:normal;word-spacing:normal;text-transform:none;direction:ltr;block-progression:tb;writing-mode:lr-tb;text-anchor:start;baseline-shift:baseline;color:#000000;fill:#ffffff;fill-opacity:0.1577061;stroke:none;stroke-width:1;marker:none;visibility:visible;display:inline;overflow:visible;enable-background:accumulate;font-family:Sans;-inkscape-font-specification:Sans"
     d="M 0 1 L 0 2 L 64 2 L 64 1 L 0 1 z M 0 3 L 0 4 L 64 4 L 64 3 L 0 3 z "
     id="path4534" />
  <path
     style="font-size:medium;font-style:normal;font-variant:normal;font-weight:normal;font-stretch:normal;text-indent:0;text-align:start;text-decoration:none;line-height:normal;letter-spacing:normal;word-spacing:normal;text-transform:none;direction:ltr;block-progression:tb;writing-mode:lr-tb;text-anchor:start;baseline-shift:baseline;color:#000000;fill:#ffffff;fill-opacity:0.1577061;stroke:none;stroke-width:1;marker:none;visibility:visible;display:inline;overflow:visible;enable-background:accumulate;font-family:Sans;-inkscape-font-specification:Sans"
     d="M 2 0 L 1 0.5 L 1 4 L 2 4 L 2 0 z M 3 0 L 3 4 L 4 4 L 4 0 L 3 0 z M 5 0 L 5 4 L 6 4 L 6 0 L 5 0 z M 7 0 L 7 4 L 8 4 L 8 0 L 7 0 z M 9 0 L 9 4 L 10 4 L 10 0 L 9 0 z M 11 0 L 11 4 L 12 4 L 12 0 L 11 0 z M 13 0 L 13 4 L 14 4 L 14 0 L 13 0 z M 15 0 L 15 4 L 16 4 L 16 0 L 15 0 z M 17 0 L 17 4 L 18 4 L 18 0 L 17 0 z M 19 0 L 19 4 L 19.5625 4 L 20 4 L 20 0 L 19.5625 0 L 19 0 z M 21 0 L 21 4 L 22 4 L 22 0 L 21 0 z M 23 0 L 23 4 L 24 4 L 24 0 L 23 0 z M 25 0 L 25 4 L 26 4 L 26 0 L 25 0 z M 27 0 L 27 4 L 28 4 L 28 0 L 27 0 z M 29 0 L 29 4 L 30 4 L 30 0 L 29 0 z M 31 0 L 31 4 L 32 4 L 32 0 L 31 0 z M 33 0 L 33 4 L 34 4 L 34 0 L 33 0 z M 35 0 L 35 4 L 36 4 L 36 0 L 35 0 z M 37 0 L 37 4 L 38 4 L 38 0 L 37 0 z M 39 0 L 39 4 L 39.125 4 L 40 4 L 40 0 L 39.125 0 L 39 0 z M 41 0 L 41 4 L 42 4 L 42 0 L 41 0 z M 43 0 L 43 4 L 44 4 L 44 0 L 43 0 z M 45 0 L 45 4 L 46 4 L 46 0 L 45 0 z M 47 0 L 47 4 L 48 4 L 48 0 L 47 0 z M 49 0 L 49 4 L 50 4 L 50 0 L 49 0 z M 51 0 L 51 4 L 52 4 L 52 0 L 51 0 z M 53 0 L 53 4 L 54 4 L 54 0 L 53 0 z M 55 0 L 55 4 L 56 4 L 56 0 L 55 0 z M 57 0 L 57 4 L 58 4 L 58 0 L 57 0 z M 59 0 L 59 4 L 60 4 L 60 0 L 59 0 z M 61 0 L 61 4 L 62 4 L 62 0 L 61 0 z M 63 0.5 L 63 4 L 64 4 L 64 1 L 63 0.5 z "
     id="path4536" />
  <path
     d="M 64,6 62,4 64,3 z"
     id="path3028"
     style="fill:#71a6b8;fill-opacity:1"
     inkscape:connector-curvature="0" />
  <path
     style="fill:#9dcad9;fill-opacity:1;fill-rule:nonzero"
     d="M 0,3 0,6 2,4 Z"
     id="path4298"
     inkscape:connector-curvature="0"
     sodipodi:nodetypes="cccc" />
</svg>
